X:1
T:Die schöne Müllerin
T:Eifersucht und Stolz
T:15. Eifersucht und Stolz
T:Franz Schubert
T:Wilhelm Müller
T:Die schöne Müllerin, D.795
T:OpenScore (CC0)
T:OpenScore (CC0)
T:OpenScore (CC0)
T:OpenScore (CC0)
C:Franz Schubert
Z:Wilhelm Müller
Z:OpenScore (CC0)
%%score 1 { 2 | ( 3 4 ) }
L:1/8
Q:1/4=135
M:2/4
K:Bb
V:1 treble nm="Singstimme"
V:2 treble nm="Pianoforte"
V:3 bass 
V:4 bass 
V:1
"^Geschwind." z4 | z4 | z4 | z2 z!mf! D | B3/2 ^F/ G3/2 A/ | B3/2 ^F/ G3/2 A/ | B2 c2 | d2 z F | %8
w: |||Wo-|hin so schnell, so|kraus und wild, mein|lie- ber|Bach? eilst|
 d3/2 A/ B3/2 c/ | d3/2 A/ B3/2 c/ | (d f2) d | =e2 z f | _e2 z d | c2 z B | A c B A | d3 ^F | %16
w: du voll Zorn dem|fre- chen Bru- der|Jä- * ger|nach? Kehr'|um, kehr'|um und|schilt erst dei- ne|Mül- le-|
 G2 z f | e3 d | c3 B | A c B A | d3 ^F | G2 z ^f | g2 z ^f | g2 z d | G2 z2 | z2 z B | B B B B | %27
w: rin für|ih- ren|leich- ten,|lo- sen, klei- nen|Flat- ter-|sinn, kehr'|um, kehr'|um, kehr'|um!|Sahst|du sie ge- stern|
 B B B B | A3 c | c2 z f | f3 f | f2 F2 | F F F F | G3 =E | F2 z2 |[Q:1/4=140] z F G A | B D F B | %37
w: A- bend nicht am|Tho- re|steh'n, mit|lan- gem|Hal- se|nach der gro- ssen|Stra- sse|seh'n?|Wenn von dem|Fang der Jä- ger|
 c3/2 F/ A c | d2 z2 | z f e d | c e d c | B3/2 G/ d3/2 ^F/ | G2 z2 | z =F G A | B D F B | %45
w: lu- stig zieht nach|Haus,|da steckt kein|sitt- sam Kind den|Kopf zum Fen- ster|'naus,|wenn von dem|Fang der Jä- ger|
 c F A c | d2 z2 |[Q:1/4=140] z[Q:1/4=137] f[Q:1/4=134]"^.1" e[Q:1/4=131]"^.1" d | %48
w: lu- stig zieht nach|Haus,|da steckt kein|
[Q:1/4=128]"^.1" c[Q:1/4=125]"^.2" e[Q:1/4=122]"^.2" d[Q:1/4=119]"^.3" c | %49
w: sitt- sam Kind den|
[Q:1/4=116]"^.3" B3/2[Q:1/4=111]"^.9" G/[Q:1/4=110]"^.4" d3/2[Q:1/4=105]"^.9" ^F/[Q:1/4=113]"^.3"[Q:1/4=107]"^.4" | %50
w: Kopf zum Fen- ster|
[Q:1/4=104]"^.4" G3/2[Q:1/4=100] d/ d A[Q:1/4=103][Q:1/4=101]"^.5" | =B G A3/2 B/ | G3/2 d/ d A | %53
w: 'naus. Geh' Bäch- lein|hin und sag' ihr|das, geh' Bäch- lein|
 =B G A3/2 B/ | G2 z2 | z!mp! G ^F G | A2 z2 | d2 A z/ A/ | _B4 | z c c c | _d4- | d f e _d | c4 | %63
w: hin und sag' ihr|das.|Doch sag' ihr|nicht,|hörst du, kein|Wort|von mei- nem|trau-|\- ri- gen Ge-|sicht;|
 z2 e2 | d4 | z2[Q:1/4=130] c2 ||[K:G] B3 G | D G B G | d3 c/B/ | A A B c | B3 G | D G B G | %72
w: sag'|ihr:|Er|schnitzt bei|mir sich ei- ne|Pfeif' aus *|Rohr und bläst den|Kin- dern|schö- ne Tänz' und|
 d3 c/B/ | A2 z!f! _B |!mf! A2 z!f! _B |!mf! A2 z[Q:1/4=130] d[Q:1/4=128]"^.7" | %76
w: Lie- der *|vor; sag'|ihr, sag'|ihr: er|
[Q:1/4=127]"^.3" e3[Q:1/4=119]"^.3" E[Q:1/4=126][Q:1/4=124]"^.7"[Q:1/4=123]"^.3"[Q:1/4=122][Q:1/4=120]"^.7"[Q:1/4=118] | %77
w: schnitzt bei|
[Q:1/4=116]"^.7" E3/2[Q:1/4=112]"^.7" F/[Q:1/4=111]"^.3" G[Q:1/4=108]"^.7" A[Q:1/4=115]"^.3"[Q:1/4=114][Q:1/4=110][Q:1/4=107]"^.3" | %78
w: mir sich ei- ne|
[Q:1/4=106] =B3[Q:1/4=98] A[Q:1/4=104]"^.7"[Q:1/4=103]"^.3"[Q:1/4=102][Q:1/4=100]"^.7"[Q:1/4=99]"^.3"[Q:1/4=96]"^.7" | %79
w: Pfeif' aus|
[Q:1/4=95]"^.3" G2 z!f![Q:1/4=130] _B[Q:1/4=94][Q:1/4=92]"^.7"[Q:1/4=91]"^.3" |!mf! A2 z!f! _B | %81
w: Rohr, sag'|ihr, sag'|
!mf! A2 z d | e3[Q:1/4=130] E[Q:1/4=128]"^.7" | %83
w: ihr: er|bläst den|
[Q:1/4=127]"^.3" E[Q:1/4=124]"^.7" c[Q:1/4=122] A[Q:1/4=119]"^.3" e[Q:1/4=126][Q:1/4=123]"^.3"[Q:1/4=120]"^.7"[Q:1/4=118] | %84
w: Kin- dern schö- ne|
[Q:1/4=116]"^.7" G3[Q:1/4=108]"^.7" A[Q:1/4=115]"^.3"[Q:1/4=114][Q:1/4=112]"^.7"[Q:1/4=111]"^.3"[Q:1/4=110][Q:1/4=107]"^.3" | %85
w: Tänz' und|
[Q:1/4=106] (3(B[Q:1/4=104]"^.2"c[Q:1/4=102]"^.4"A[Q:1/4=100]"^.7" d3/2)[Q:1/4=96]"^.7" F/[Q:1/4=104]"^.7"[Q:1/4=103]"^.3"[Q:1/4=102][Q:1/4=99]"^.3"[Q:1/4=98] | %86
w: Lie- * * * der|
[Q:1/4=95]"^.3" G2[Q:1/4=130] z f[Q:1/4=94][Q:1/4=92]"^.7"[Q:1/4=91]"^.3" | g2 z f | g2 z d | %89
w: vor, sag'|ihr's, sag'|ihr's, sag|
!f! G2 z2 | z4 | z4 | z4 |] %93
w: ihr's!||||
V:2
 G,/B,/G/B,/ A,/C/^F/C/ | G,/B,/G/B,/ A,/C/^F/C/ | B,/G/D/B,/ G, z | %3
[K:bass] z/ D,/=E,/^F,/ G,/A,/B,/C/ | B,/A,/G,/^F,/ G,/A,/B,/C/ | B,/A,/G,/^F,/ G,/A,/B,/C/ | %6
[K:treble] B,/D/C/B,/ A,/C/B,/A,/ | B,/F,/G,/A,/ B,/C/D/E/ | D/C/B,/A,/ B,/C/D/E/ | %9
 D/C/B,/A,/ B,/C/D/E/ | D/F/=E/D/ ^C/D/E/D/ | ^C/A,/C/=E/ A/E/F/=C/ | _E/B,/A,/B,/ E/B,/D/A,/ | %13
 C/G,/^F,/G,/ C/G,/B,/G,/ | A,/G,/C/G,/ B,/G,/A,/G,/ | B,/D/B,/G,/ C/D/C/A,/ | %16
 B,/G,/B,/D/ G/D/F/C/ | E/B,/A,/B,/ E/B,/D/A,/ | C/G,/^F,/A,/ C/G,/B,/G,/ | %19
 A,/G,/C/G,/ B,/G,/A,/G,/ | B,/D/B,/G,/ C/D/C/A,/ | B,/D/B,/G,/ C/D/C/A,/ | B,/D/B,/G,/ C/D/C/A,/ | %23
 B,/D/B,/G,/ C/D/C/A,/ | B,/D/B,/G,/ D/B,/A,/B,/ | D/B,/A,/B,/ D/B,/A,/B,/ | %26
 D/B,/A,/B,/ D/B,/A,/B,/ | E/B,/A,/B,/ =E/B,/A,/B,/ | A,/C/F/C/ A,/C/F/C/ | A,/C/F/C/ A,/C/F/C/ | %30
 B,/_D/F/D/ =B,/=D/F/D/ | C/E/F/E/ C/E/F/E/ | =B,/D/F/D/ B,/D/F/D/ | _B,/_D/=E/D/ B,/D/E/D/ | %34
 A,/C/F/C/ A,/C/F/C/ | A, z z2 | [B,D]2 z2 | [A,E]2 z2 | z3/2 [B,D]<[DF][CE]/ | [B,D]2 z2 | %40
 [G,C]2 z2 | [G,B,] z [^F,A,] z | G,>[G,B,][G,A,][G,B,] | [A,C]2 z2 | [B,D]2 z2 | [A,E]2 z2 | %46
 z3/2 [B,D]<[DF][CE]/ | [B,D]2 z2 | [G,C]2 z2 | [G,B,] z [^F,A,] z | G,/=B,/D/B,/ C/^F/C/A,/ | %51
 =B,/G/B,/G,/ C/^F/C/A,/ | =B,/G/B,/G,/ C/^F/C/A,/ | =B,/G/B,/G,/ C/^F/C/A,/ | %54
 =B,/G/B,/G,/ B,/G/B,/G,/ | =B,/G/B,/G,/ B,/G/B,/G,/ | C/D/C/^F,/ C/D/C/F,/ | %57
 C/D/C/^F,/ C/D/C/F,/ | _B,/D/B,/G,/ B,/D/B,/G,/ | E/F/E/A,/ E/F/E/A,/ | _D/F/D/B,/ D/F/D/B,/ | %61
 _D/F/D/B,/ D/F/D/B,/ | C/F/C/A,/ C/F/C/A,/ | C/E/C/A,/ C/E/C/A,/ | C/D/C/A,/ C/D/C/A,/ | %65
 C/D/C/^F,/ C/D/C/F,/ ||[K:G][K:bass] B,/G,/F,/G,/ B,/G,/F,/G,/ | B,/G,/F,/G,/ B,/G,/F,/G,/ | %68
 C/F,/^E,/F,/ C/F,/E,/F,/ | C/F,/^E,/F,/ C/F,/E,/F,/ | B,/G,/F,/G,/ B,/G,/F,/G,/ | %71
 B,/G,/F,/G,/ B,/G,/F,/G,/ | C/F,/^E,/F,/ C/F,/E,/F,/ | C/F,/^E,/F,/ C/F,/_B,/!p!G,/ | %74
 A,/F,/D,/F,/ A,/F,/_B,/!p!G,/ | A,/F,/D,/G,/ D/G,/D,/G,/ | E,/G,/E/G,/ E,/^G,/D/G,/ | %77
 E,/A,/C/A,/ E,/G,/A,/G,/ | D,/G,/B,/G,/ D,/F,/C/F,/ | D,/G,/B,/G,/ D,/G,/_B,/!p!G,/ | %80
 A,/F,/D,/F,/ A,/F,/_B,/!p!G,/ | A,/F,/D,/F,/ D/G,/D,/G,/ | E,/G,/E/G,/ E,/^G,/D/G,/ | %83
 E,/A,/C/A,/[K:treble] C/E/A/E/ | B,/D/G/D/ B,/D/G/D/ | A,/D/F/D/ C/D/A/D/ | %86
 B,/G/B,/G,/!mp!"_cresc." C/F/C/A,/ | B,/G/B,/G,/ C/F/C/A,/ | B,/G/B,/G,/ C/F/C/A,/ | %89
 B,/G/D/B,/[K:bass] G,/D,/B,,/G,,/ | B,,/G,/D,/B,,/ G,,/ z/ z |[K:treble] z2 [Acdf]2 | %92
 [GBdg]2 z2 |] %93
V:3
!mf! [G,,D,]2 z [G,,D,] | [G,,D,]2 z [G,,D,] | [G,,D,]2 z/ D,/B,,/D,/ | G,,2 z2 | %4
!p! [G,,D,]2 z [^F,,E,] | [G,,D,]2 z [^F,,E,] | [G,,D,]2 [=F,,E,]2 | [B,,D,]2 z2 | %8
 [B,,F,]2 z [A,,_G,] | [B,,F,]2 z [A,,_G,] | [B,,F,]2 [B,,^G,]2 | [A,,A,]2 z A, | G,2 z F, | %13
 E,2 z D, | C,E,D,C, | D,2 z [D,,D,] | [G,,D,]2 B,A, | G,2 z F, | E,2 z D, | C,E,D,C, | %20
 D, z [D,,D,] z | [G,,D,]2 z [G,,D,] | [G,,D,]2 z [G,,D,] | [G,,D,]2 z [G,,D,] | [G,,D,]2 z2 | z4 | %26
 G,4- | (G,2 _G,2 | F,4-) | F,4 | F,4- | F,4 | [F,,F,]4- | [F,,F,]4- | [F,,F,]4- | [F,,F,] z z2 | %36
!mf! [B,,F,]2 z2 | [F,,F,]2 z2 | z3/2 [B,,F,]<[A,,F,][F,,F,]/ | [B,,F,]2 z2 | [E,,E,]2 z2 | %41
 [D,,D,] z [D,,D,] z | G,,>[G,,D,][G,,D,][G,,D,] | [F,,F,]2 z2 | [B,,F,]2 z2 | [F,,F,]2 z2 | %46
 z3/2 [B,,F,]<[A,,F,][F,,F,]/ | [B,,F,]2 z2 | [E,,E,]2 z2 | [D,,D,] z [D,,D,] z | %50
 [G,,D,]2 z [G,,D,] | [G,,D,]2 z [G,,D,] | [G,,D,]2 z [G,,D,] | [G,,D,]2 z [G,,D,] | [G,,D,]4- | %55
!p! [G,,D,]2 z2 |!pp! z2 [D,,D,]2 | z2 [D,,D,]2 | z2 [G,,D,]2 | z2 [F,,F,]2 | z2 [B,,F,]2- | %61
 [B,,F,]_D,E,=E, | F,4- | F,2 z2 | (^F,4 | D,4) ||[K:G]!pp! D,2 z D, | D,2 z D, | D,2 z D, | %69
 D,2 z D, | D,2 z D, | D,2 z D, | D,2 z D, | [G,,D,]2 z [G,,D,] | [D,,D,]2 z [G,,D,] | %75
 [D,,D,]2 [=B,,,=B,,]2 | [C,,C,]4- | [C,,C,]4 | D,, z D,, z | G,,2 z [G,,D,] | [D,,D,]2 z [G,,D,] | %81
 [D,,D,]2 [=B,,,=B,,]2 | [C,,C,]4- | [C,,C,]4 | [D,,D,]4 | [D,,D,]4 | [G,,D,]2 z [G,,D,] | %87
 [G,,D,]2 z [G,,D,] | [G,,D,]2 z [G,,D,] |!f! [G,,D,]2 z2 | z2 z/ D,,/B,,,/D,,/ | G,,, z [D,,D,]2 | %92
 [G,,,G,,]2 z2 |] %93
V:4
 x4 | x4 | x4 | x4 | x4 | x4 | x4 | x4 | x4 | x4 | x4 | x4 | x4 | x4 | x4 | x4 | x4 | x4 | x4 | %19
 x4 | x4 | x4 | x4 | x4 | x4 | x4 | x4 | x4 | x4 | x4 | x4 | x4 | x4 | x4 | x4 | x4 | x4 | x4 | %38
 x4 | x4 | x4 | x4 | x4 | x4 | x4 | x4 | x4 | x4 | x4 | x4 | x4 | x4 | x4 | x4 | x4 | x4 | x4 | %57
 x4 | x4 | x4 | x4 | x4 | x4 | x4 | x4 | x4 ||[K:G] G,,4 | G,,4 | G,,4 | G,,4 | G,,4 | G,,4 | %72
 G,,4 | x4 | x4 | x4 | x4 | x4 | x4 | x4 | x4 | x4 | x4 | x4 | x4 | x4 | x4 | x4 | x4 | x4 | x4 | %91
 x4 | x4 |] %93

